!!!!SEGMENT: T674_Hin-w94p51m2-1hKm1-5.krn
!!!COM: Hindemith, Paul
!!!OTL: III: Rondo: Rather fast
!!!OMV: III: Rondo: Rather Fast
!!!example: 674
!!!work: Hin-94
!!!AGN-sub: Concerto
!!!OPR: Concerto for Woodwind Instruments, Harp and Orchestra
!!!filename: T674_Hin-w94p51m2-1hKm1-5.krn
**kern	**dynam	**kern	**dynam	**kern	**dynam	**kern	**dynam	**kern	**dynam	**kern	**dynam
*grp:A	*	*grp:A	*	*grp:B	*	*grp:B	*	*grp:B	*	*grp:B	*
*part5	*	*part5	*	*part4	*	*part3	*	*part2	*	*part1	*
*staff6	*	*staff5	*	*staff4	*	*staff3	*	*staff2	*	*staff1	*
*ICstr	*	*ICstr	*	*ICww	*	*ICww	*	*ICww	*	*ICww	*
*Iarpa	*	*Iarpa	*	*Iclarb	*	*Iclars	*	*Ioboe	*	*Iflt	*
*I"Harp	*	*I"Harp	*	*I"Bass Clarinet in Bb	*	*I"Clarinet in Bb	*	*I"Oboe	*	*I"Flute	*
*I'arp	*	*I'arp	*	*I'b-cl	*	*I'cl	*	*I'ob	*	*I'fl	*
*clefF4	*	*clefG2	*	*clefG2	*	*clefG2	*	*clefG2	*	*clefG2	*
*k[]	*	*k[]	*	*k[]	*	*k[]	*	*k[]	*	*k[]	*
*	*	*	*	*	*	*	*	*	*	*	*
*M4/4	*	*M4/4	*	*M4/4	*	*M4/4	*	*M4/4	*	*M4/4	*
=136	=136	=136	=136	=136	=136	=136	=136	=136	=136	=136	=136
!!LO:TX:t=[[half]=92]
1r	.	1r	.	8D	.	2e-X	.	8cc	.	4ee-X	.
.	.	.	.	8r	.	.	.	8r	.	.	.
.	.	.	.	(4D	.	.	.	(4cc	.	(12ee-L	.
.	.	.	.	.	.	.	.	.	.	12dd	.
.	.	.	.	.	.	.	.	.	.	12ee-J)	.
.	.	.	.	8G)	.	4.e-	.	12b-XL)	.	4ff	.
.	.	.	.	.	.	.	.	12a-X	.	.	.
.	.	.	.	8r	.	.	.	.	.	.	.
.	.	.	.	.	.	.	.	12gJ	.	.	.
.	.	.	.	4G	.	.	.	4a-	.	(12ffL	.
.	.	.	.	.	.	.	.	.	.	12ee-	.
.	.	.	.	.	.	8e-	.	.	.	.	.
.	.	.	.	.	.	.	.	.	.	12ddJ)	.
=137	=137	=137	=137	=137	=137	=137	=137	=137	=137	=137	=137
1r	.	1r	.	4F-X	.	(4g	.	2e-X	.	(12ccL	.
.	.	.	.	.	.	.	.	.	.	12b-X)	.
.	.	.	.	.	.	.	.	.	.	12ccJ	.
.	.	.	.	8E--L	.	4f)	.	.	.	[4cc	.
.	.	.	.	8DJ	.	.	.	.	.	.	.
.	.	.	.	4r	.	4d'	.	(4f	.	12ccL]	.
.	.	.	.	.	.	.	.	.	.	12ff	.
.	.	.	.	.	.	.	.	.	.	12ccJ	.
.	.	.	.	4C'	.	4B-X'	.	8g)	.	(12ccL	.
.	.	.	.	.	.	.	.	.	.	12ff)	.
.	.	.	.	.	.	.	.	8r	.	.	.
.	.	.	.	.	.	.	.	.	.	12ccJ	.
*clefG2	*	*	*	*	*	*	*	*	*	*	*
=138	=138	=138	=138	=138	=138	=138	=138	=138	=138	=138	=138
!	!	!LO:TX:t=P:problem:Harp part is unmeasured, and has been coded without rhythmic consistency.	!	!	!	!	!	!	!	!	!
2ryy	.	2ryy	.	4BB--'	.	4.B-X	.	4g	.	4b-X	.
.	.	.	.	4r	.	.	.	12ffL	p	4r	.
.	.	.	.	.	.	.	.	12ff	.	.	.
.	.	.	.	.	.	8e-X	.	.	.	.	.
.	.	.	.	.	.	.	.	12ffJ	.	.	.
*	*	*8va	*	*	*	*	*	*	*	*	*
!	!	!LO:TX:b:t=Play without any regularity, disregard the meter of the	!	!	!	!	!	!	!	!	!
!	!	!LO:TX:b:t=other players	!	!	!	!	!	!	!	!	!
!	!	!LO:TX:b:i:t=Metrisch unregelmáßig und ohne Rücksicht auf die anderen	!	!	!	!	!	!	!	!	!
!	!	!LO:TX:b:i:t=Instrumente zu spielen	!	!	!	!	!	!	!	!	!
2ccc-	mp	2cccc-	mp	2r	.	4.e-	.	8.ffL	.	4r	.
.	.	.	.	.	.	.	.	16ee-XJk	.	.	.
.	.	.	.	.	.	.	.	8.ee-L	.	12eee-XL	p
.	.	.	.	.	.	.	.	.	.	12eee-	.
.	.	.	.	.	.	8g	.	.	.	.	.
.	.	.	.	.	.	.	.	.	.	12eee-J	.
.	.	.	.	.	.	.	.	16dd-XJk	.	.	.
=139-	=139-	=139-	=139-	=139	=139	=139	=139	=139	=139	=139	=139
8ryy	.	8ryy	.	2r	.	(4g	.	(12dd-XL	.	8.eee-XL	.
.	.	.	.	.	.	.	.	12cc)	.	.	.
2gg-	.	2ggg-	.	.	.	.	.	.	.	.	.
.	.	.	.	.	.	.	.	12b-XJ	.	.	.
.	.	.	.	.	.	.	.	.	.	16ddd-XJk	.
.	.	.	.	.	.	4f)	.	8a-X	.	(12ddd-L	.
.	.	.	.	.	.	.	.	.	.	12ccc)	.
.	.	.	.	.	.	.	.	8r	.	.	.
.	.	.	.	.	.	.	.	.	.	12bb-XJ	.
.	.	.	.	12dL	.	4d'	.	2r	.	8ccc	.
.	.	.	.	12d	.	.	.	.	.	.	.
16ryy	.	16ryy	.	.	.	.	.	.	.	8r	.
.	.	.	.	12dJ	.	.	.	.	.	.	.
!LO:N:head=open	!	!LO:N:head=open	!	!	!	!	!	!	!	!	!
4aa-	.	4aaa-	.	.	.	.	.	.	.	.	.
.	.	.	.	8.dL	.	4B-X'	.	.	.	4r	.
16ryy	.	16ryy	.	16cJk	.	.	.	.	.	.	.
=140-	=140-	=140-	=140-	=140	=140	=140	=140	=140	=140	=140	=140
4ryy	.	4ryy	.	8.cL	.	4.B-X	.	2r	.	12a-XL	.
.	.	.	.	.	.	.	.	.	.	12a-	.
.	.	.	.	.	.	.	.	.	.	12a-J	.
.	.	.	.	16B--Jk	.	.	.	.	.	.	.
2dd-	.	2ddd-	.	(12B--L	.	.	.	.	.	8.a-L	.
.	.	.	.	12A)	.	.	.	.	.	.	.
.	.	.	.	.	.	8g	.	.	.	.	.
.	.	.	.	12GJ	.	.	.	.	.	.	.
.	.	.	.	.	.	.	.	.	.	16gJk	.
.	.	.	.	8Fn	.	4.g	.	4r	.	(12gL	.
.	.	.	.	.	.	.	.	.	.	12f)	.
.	.	.	.	8r	.	.	.	.	.	.	.
.	.	.	.	.	.	.	.	.	.	12e-XJ	.
2ff-	.	2fff-	.	4r	.	.	.	12gg-XL	<	8d	.
.	.	.	.	.	.	.	.	12gg-	.	.	.
.	.	.	.	.	.	8b-X	.	.	.	8r	.
.	.	.	.	.	.	.	.	12gg-J	.	.	.
=141-	=141-	=141-	=141-	=141	=141	=141	=141	=141	=141	=141	=141
!	!	!	!	!LO:TX:t=P:problem: Polymeter is shifting whole rest, it should be in the centre of bar.	!	!	!	!	!	!	!
.	.	.	.	1r	.	2b-X	<	8.gg-XL	.	4r	.
.	.	.	.	.	.	.	.	16ffJk	.	.	.
2gg-X	.	2ggg-X	.	.	.	.	.	8.ffL	.	12ccc-XL	<
.	.	.	.	.	.	.	.	.	.	12ccc-	.
.	.	.	.	.	.	.	.	.	.	12ccc-J	.
.	.	.	.	.	.	.	.	16ee-XJk	.	.	.
.	.	.	.	.	.	4a-X	.	(12ee-L	.	8.ccc-L	.
.	.	.	.	.	.	.	.	12dd-X)	.	.	.
.	.	.	.	.	.	.	.	12ccnJ	.	.	.
.	.	.	.	.	.	.	.	.	.	16bb-XJk	.
2ee-	.	2eee-	.	.	.	4g	.	8ddn	[	(12bb-L	.
.	.	.	.	.	.	.	.	.	.	12aa-X)	.
.	.	.	.	.	.	.	.	8r	.	.	.
.	.	.	.	.	.	.	.	.	.	12ggnJ	.
=142-	=142-	=142-	=142-	=142	=142	=142	=142	=142	=142	=142	=142
.	.	.	.	12a-XL	mf	4f	.	2r	.	8aa-X	.
.	.	.	.	12a-	.	.	.	.	.	.	.
.	.	.	.	.	.	.	.	.	.	8r	[
.	.	.	.	12a-J	.	.	.	.	.	.	.
2aa-X	.	2aaa-X	.	8.a-L	.	8.eL	.	.	.	4r	.
.	.	.	.	16gJk	.	16gJk	.	.	.	.	.
.	.	.	.	8.gL	.	4f	.	12ee-XL	.	2r	.
.	.	.	.	.	.	.	.	12ee-	.	.	.
.	.	.	.	.	.	.	.	12ee-J	.	.	.
.	.	.	.	16f-XJk	.	.	.	.	.	.	.
!LO:N:head=open	!	!LO:N:head=open	!	!	!	!	!	!	!	!	!
4ccc-X	.	4cccc-X	.	(12f-L	.	8.cL	.	8.ee-L	.	.	.
.	.	.	.	12e--)	.	.	.	.	.	.	.
.	.	.	.	12dJ	.	.	.	.	.	.	.
.	.	.	.	.	.	16e-XJk	[[	16dd-XJk	.	.	.
*	*	*X8va	*	*	*	*	*	*	*	*	*
=	=	=	=	=	=	=	=	=	=	=	=
*-	*-	*-	*-	*-	*-	*-	*-	*-	*-	*-	*-
!!!system-decoration: [(s1,s2,s3,s4)][({(s5,s6)})]
!!!EEV: 07/27/2022
!!!CDT: 1895/11/16-1963/12/28
!!!CBL: Hanau, Germany
!!!CDL: Frankfurt, Germany
!!!CNT: German
!!!AGN: Orchestral
!!!MCN: Thor, Johnson
!!!MDT: 1949/05/15
!!!MGN: CBS Symphony Orchestra
!!!MLC: New York, New York, United States of America
!!!MPD: 1949
!!!MPN:
!!!ODT: 1949
!!!PDT: 1950
!!!excerpt-start-measure: 136
!!!excerpt-end-measure: 142
!!!excerpt-start-time: 3:26
!!!excerpt-end-time: 3:36
!!!EED: Daniel Wright
!!!EEV: 2020/01/27
!!!Suter_Work_ID: Hin-94
!!!Suter_Example_Number: 674
!!!Suter_Example_ID: Hin-94/51/2-1[K]1-5
!!!Premiere_Location: New York,United States
!!!Other_Tsigs: none
!!!Full_Unit_Duration: 4:29
!!!First_Publication_Year: 1950
!!!First_Public_Performance_Year: 1949
!!!Example_Total_Measures: 7
!!!Example_Timestamp_Duration: 7
!!!Example_Start_Tsig_Type: simple duple
!!!Example_Start_Tsig_Mean_Beat_Rate: 92
!!!Example_Start_Tsig_Beat_Rate: 92
!!!Example_Start_Tsig_Beat: half
!!!Example_Start_Tsig: 2/2
!!!Example_Start_Timestamp: 3:29
!!!Example_Start_Tempo_Expression: [Rather fast]
!!!Example_Start_Notated_Beat_Rate: [92]
!!!Example_Start_Notated_Beat: [half]
!!!Example_Start_Measure: 136
!!!Example_Metadata_Validated: Y
!!!Example_End_Timestamp: 3:36
!!!Example_End_Measure: 142
!!!Example_Dataset: T
!!!Editorial_Comments: Example Start Notated Beat and Example Start Notated Beat Rate [half=92] based on most recent notated beat rate (SWFU, m. 1). Example Start Tempo Expression [Rather fast] based on most recent notated tempo expression (SWFU, m. 1). Interpretation Note: Whilst all other parts are in 2/2 for this excerpt, from m.138ff, the harp part is notated without barlines and is instructed to \"play without any regularity, disregard the meter of the other Players\". During the excerpt, it plays a total of 8 full half notes, with a 9th articulated before the last barline but not sounded for its full duration.
!!!Death_Place: Frankfurt,Germany
!!!Death_Date: 28-Dec-1963
!!!Changing_Tsig: no
!!!Birth_Place: Hanau,Germany
!!!Birth_Date: 16-Nov-1895
!!!Audio_Example_Quarter_Note_Tempo:
!!!Audio_Example_Duration:
!!!ONB: Converted from MusicXML on 2020/01/27
